X:1
T:Ingrediente Domino - Morales
T:#
%%score [ 1 2 3 4 ]
L:1/8
Q:1/4=100
M:3/2
K:F
V:1 treble nm="Soprano" snm="S"
V:2 treble nm="Alto" snm="A"
V:3 treble-8 nm="Tenor" snm="T"
V:4 bass nm="Bass" snm="B"
V:1
"^Cristóbal de Morales\n(1500-53)""^Ingrediente Domino""^Prima pars" G8 F4 | (G3 F GA B4 A2 | %2
w: In- gre-|di\- * * * * *|
 B3 A G2 F2) _E4 | (D2 F3 GAB c3 B | AG F4) (ED) C4 |[M:3/2] z2 (F2 E2 G4 F2 | _E2 D3 C F4) =E2 | %7
w: * * * * en-|te Do\- * * * * *|* * * mi\- * no,|Do\- * * *|* * * * mi-|
 F4 z2 (F2 G2 A2- | AGFE D2 F2) E4 | D4 z4 F4 | (G4 B8) | A4 (B6 A2) | G4 A8 | G4 (B4 c4) | %14
w: no, Do\- * *|* * * * * * mi-|no in|sanc\- *|tam ci\- *|vi- ta-|tem, in *|
 (A2 B4 AG B2 A2- | AGFE D2 G4 ^F2) | G4 z2 D2 (G4 | F6 ED) E4 | F8 z4 | z12 | z12 | z12 | B8 (c4 | %23
w: sanc\- * * * * *||tam ci- vi\-|* * * ta-|tem||||He- brae\-|
 d4) (d4 c4) | A4 (B4 c4) | (B8 c4 | B6 AG A4 | G2 A3 G G4 ^F2) | G4 z2 A4 G2- | G2 F2 G2 E2 D4 | %30
w: * o\- *|rum pu\- *|e\- *|||ri re- sur\-|* rec- ti- o- nem|
 (E2 CD EF G4 ^F2) | G4 (G4 A4) | (B6 A2 G2 F2 | _E4 D2) (d4 c2 | B2 AG) (A4 G2 B2- | %35
w: vi\- * * * * * *|tae pro\- *|nun\- * * *|* * ci\- *|* * * an\- * *|
 BAFG AB c2 F2 G2- | G2 A2 B2 AG) F4 | z2 c2 c2 B2 c4 | B4 z4 z4 | z4 (F4 G4) | B4 (B4 A4) | %41
w: |* * * * * tes,|pro- nun- ci- an-|tes|cum *|ra- mis *|
 G4 (G4 B4 | c4 B2 G3 ABc) | d4 z2 G2 (B3 c) | d4 z2 B2 (G2 A2 | B2 AG A2 B4 A2) | B12 | z12 | %48
w: pal- ma\- *||rum, pal- ma\- *|rum, pal- ma\- *||rum.||
 z4 B8 | (B4 c8 | B8) B4 | (A4 B4 B4 | G4 F4 G4 | A3 G/A/ B2 G4 F2) | G8 z4 | G4 B4 (G2 A2- | %56
w: O-|san\- *|* cla-|ma\- * *|||bant|in ex- cel\- *|
 A2[Q:1/4=98] B4[Q:1/4=97] A2[Q:1/4=95] G4 | %57
w: |
[Q:1/4=93] F2[Q:1/4=92] B3[Q:1/4=91] A[Q:1/4=90] G4[Q:1/4=88] ^F2) |[Q:1/4=88] G12 || %59
w: |sis.|
[M:3/2]"^Secunda pars" z12 | (F8 G4 | B8 c4) | B8 z4 | B4 c4 d4 |[M:3/2] c4 z4 B4 | B4 B4 z4 | %66
w: |Cum\- *||que|au- dis\- *|sent, quod|Je- sus|
 (B4 A3 B c2 d2- | dcBA B2 G4 FE | D2 E2 C2 c2 (B2 AG | F2 B3 A) G4 ^F2 | G4 z4 G4 | %71
w: ve\- * * * *||* ni- ret Hie- ro\- * *|* * * so- ly-|mam ex-|
 F4 G3 A B2 A2- | AG G4 F2) G4 | z4 (G4 A4) | (B6 A2 G4 | F4) G4 (B4 | A3 B c2 d4 cB | %77
w: i- e\- * * *|* * * * runt|ob\- *|vi\- * *|* am e\-||
 ABcA) B4 z2 (B2- | B2 AG B2) (A3 GFE) | (DEFG A2) (F4 E2) | F4 (F4 G4) | B4 (B4 A4) | G4 (G4 B4 | %83
w: * * * * i, ob\-|* * * * vi\- * * *|am * * * * e\- *|i cum *|ra- mis *|pal- ma\- *|
 c4 B2 G3 ABc) | d4 z2 G2 (B3 c) | d4 z2 B2 (G2 A2 | B2 AG A2 B4 A2) | B12 | z12 | z4 B8 | (B4 c8 | %91
w: |rum, pal- ma\- *|rum, pal- ma\- *||rum.||O-|san\- *|
 B8 B4 | (A4 B4 B4 | G4 F4 G4 | A3 G/A/ B2 G4 F2) | G8 z4 | G4 B4 G2 A2- | A2 B4 A2 G4 | %98
w: * cla-|ma\- * *|||bant|in ex- cel\- *||
 F3 G A2 B4 AG | FG A3 G G4 ^F2) | G8 z4 | G4 B4 (G2 A2- | A2 B4 A2 G4 | %103
w: ||sis,|in ex- cel\- *||
 F3 G A2[Q:1/4=99] B4[Q:1/4=97] A[Q:1/4=97]G | %104
w: |
[Q:1/4=97] F[Q:1/4=96]G[Q:1/4=95] A3[Q:1/4=94] G[Q:1/4=94] G4[Q:1/4=92] ^F2) |[Q:1/4=90] G12- | %106
w: |sis.|
[Q:1/4=86] G12 |] %107
w: |
V:2
 z12 | z12 | D8 C4 | (D3 C DE) (F4 E2) | F4 z2 (F3 E C2 |[M:3/2] D2 D2 C4 z2 D2 | %6
w: ||In- gre-|di\- * * * en\- *|te Do\- * *|* mi- no, in-|
 (B,2 G,A, B,G, C3 D) E2 | D4 C8 | z2 D3 CA,B, C4 | F,2 F4) (ED C4) | D4 z2 F2 D2 G2- | %11
w: gre\- * * * * * * di-|en- te|Do\- * * * *|* * mi\- * *|no in sanc- tam|
 G2 ^F2 G2 (D3 _E =F2) | E4 z2 C2 F4 | D4 (G3 F E2) C2 | (F4 D2 G4 FE | FEDC B,2 _E2) D4 | %16
w: * ci- vi- ta\- * *|tem, in sanc-|tam ci\- * * vi-|ta\- * * * *|* * * * * * tem|
 z4 B,4 (C4 | D4) (D4 C4) | (A,4 B,4 C4- | C4) z2 (C2 B,2 D2 | C2 A,2 B,4 G,2 A,2 | %21
w: He- brae\-|* o\- *|rum * *|* pu\- * *||
 B,2 A,G, F,2 G,4) F,2 | G,2 (G3 F D2) E4 | (D2 G,A, B,C D4 C2 | D3 E FD G4 F2) | %25
w: * * * * * e-|ri, He\- * * brae-|o\- * * * * * *||
 G2 (G,A, B,C D4 C2 | D6) E2 F4 | z2 _E4 C2 D4 | B,2 (_E3 D) D4 C2 | D4 G,2 C4 B,2 | %30
w: rum pu\- * * * * *|* e- ri|re- sur- rec-|ti- o\- * nem vi-|tae pro- nun- ci-|
 (CDEF G2 C2) D4 | z2 D2 _E2 E2 F4 | D8 z4 | z4 z4 z2 C2 | D2 E2 (FEDC B,4 | D4 C2 F4 D2 | %36
w: an\- * * * * * tes,|pro- nun- ci- an-|tes|pro-|nun- ci- an\- * * * *||
 E4 DCDE F3 E/D/) | C4 z2 G2 E2 F2 | (D2 G3 F F4 E2) | F4 z4 (C4 | D4) F4 (F4 | E4) D4 (D4 | %42
w: |tes, pro- nun- ci-|an\- * * * *|tes cum|* ra- mis|* pal- ma\-|
 F4 G3 F E2 D2- | DEFD E4 D2 G2- | G2 ^F2) G4 z2 =F2 | (D2 E2) F4 z4 | z2 (D3 C B,4 A,G, | %47
w: ||* * rum, pal-|ma\- * rum.|O\- * * * *|
 F,2 B,2 G,2 A,3 B,CA, | B,3 C D2 B,3 A,G,F,) | G,4 F,8 | z2 F2 (D3 _E FD G2- | %51
w: ||san- na|cla- ma\- * * * *|
 G2 ^F2 G2 G,3 A,B,C | D2 E2 F2 D2) C4 | z2 F2 D2 (E2 C4 | D2 G,4 B,3 A, F,2) | %55
w: |* * * * bant|in ex- cel\- *||
 G,2 (G3 F D2) E2 (C2 | D2 B,3 A, F,2) G,4 | z2 D4 _E2 D4 | D12 ||[M:3/2] z12 | z12 | %61
w: sis, in * * ex- cel\-|* * * * sis,|in ex- cel-|sis.|||
 z2 (B,4 A,G, F,4 | G,3 F, G,A, B,4 A,2 | G,F, B,3 A, A,2) B,2 D2 |[M:3/2] E2 F2 G2 (E2 F4 | %65
w: Cum\- * * *||* * * * * que au-|dis- sent, quod Je\- *|
 D2 F4 ED) C2 z C | D2 E2 (F3 G) (A2 F2- | FEDC D2 E3 F G2 | F2 CD EF G4 FE | D4) E2 C2 D4 | %70
w: * * * * sus ve-|ni- ret Hie\- * ro\- *|||* so- ly- mam|
 z4 D4 (C4 | D4) D4 D4 | z4 z2 F2 D2 E2- | E2 (F2 D2 G4 F2 | G4) C4 z2 C2 | A,2 F,2 C4 z2 (D2- | %76
w: ex- i\-|* e- runt|ob- vi- am|* e\- * * *|* i, ex-|i- e- runt ob\-|
 D2 CB, A,2 B,3 A,G,F,) | E,4 F,4 G,4- | G,4 F,4 z2 (F,2 | G,2 A,4 B,2 G,4) | F,4 z4 (C4 | %81
w: |vi- am e\-|* i, e\-||i cum|
 D4 F4 (F4 | E4) D4 D4 | F4 G3 F E2 D2- | DEFD E4 D2 G2- | G2 ^F2) G4 z2 =F2 | (D2 E2) F8 | %87
w: * ra- mis|* pal- ma\-|||* * rum, pal-|ma\- * rum.|
 z2 (D3 C B,4 A,G, | F,2 B,2 G,2 A,3 B,CA, | B,3 C D2 B,3 A,G,F,) | G,4 F,8 | z2 F2 (D3 _E FD G2- | %92
w: O\- * * * *|||san- na|cla- ma\- * * * *|
 G2 ^F2 G2 G,3 A,B,C | D2 E2 F2 D2) C4 | z2 F2 D2 (E2 C4 | D2 G,4 B,3 A, F,2) | %96
w: |* * * * bant|in ex- cel\- *||
 G,2 (G3 F D2) E2 (C2 | D2 B,3 A, F,2 G,4 | A,3 B, C2 D2 B,CDE | F2 _E4 C2) D4 | %100
w: sis, in * * ex- cel\-|||* * * sis,|
 z2 G,4 (B,3 A, F,2 | G,2 (G3 F D2 E2 C2 | D2 B,3 A, F,2 G,4 | A,3 B, C2 D2 B,CDE) | F2 _E4 C2 D4 | %105
w: in ex\- * *|* cel\- * * * *|||sis, in ex- cel-|
 G,6 A,G, D4- | D12) |] %107
w: sis. * * *||
V:3
 z12 | G8 F4 | (G3 F GA B4 A2) | (B4 A2 F2 G4) | F4 (B4 A4 |[M:3/2][K:treble-8] B4 (G4 A4 | %6
w: |In- gre-|di\- * * * * *|en\- * * *|te Do\- *|* mi\- *|
 G2 B4 A2 G4) | F4 z4 z4 | z4 F4 G4 | B8) A4 | (B3 A G2) F2 (G4 | A4) G4 B4 | c8 (A4 | %13
w: |no|in sanc\-|* tam|ci\- * * vi- ta\-|* tem, in|sanc- ~~tam|
 B4) (G4 A3 B | c2) d2 (B4 G2 c2- | c2 A2 B2 c2 A4) | G8 z4 | z12 | F8 (G4 | A4) (A4 G4 | %20
w: * ci\- * *|* vi- ta\- * *||tem||He- brae\-|* o\- *|
 E4 F2 G4 FE) | F4 z2 (D4 C2 | D2 G3 A B2) A4 | d2 (g3 f d2) (e4 | d3 c B2 AG) A4 | %25
w: |rum pu\- *|* * * * e-|ri, He\- * * brae\-|* * * * * o-|
 G2 g2 (fd g4 f2 | g2 fe d2 G2 d4 | B2 c3 B G2 A4) | G4 z4 G4 | A4 G4 G4- | G2 (G2 G4 A4 | %31
w: \-rum pu- e\- * * *|||ri re-|sur- rec- ti\-|* o\- * *|
 G3 A B2) c2 A4 | G4 z4 (G4 | A4) B6 A2 | (G4 F4 G4 | B4 A4 B4 | c4 B6 AG | A4 G4 A4 | %38
w: * * * men vi-|tae pro\-|* nun- ci-|an\- * *|||* tes, pro-|
 B4 A2 (B2 G4 | F2 A4 GF EFGE) | F4 z4 F4 | G4) B4 B4 | A4 G4 (G4 | B4 c4 B4 | A4 B4 c4 | %45
w: nun- ci- an\- *||tes cum|* ra- mis|* pal- ma\-|||
 B4 c4 c4) | B8 z2 (d2- | defd _e2 c2 e4 | d2 f3 _edc B3 A | GF B4 AG) A4 | B12 | z4 z4 B4 | %52
w: |rum. O\-|||* * * * * san-|na|cla-|
 (B4 A4 G4 | F4 G4 A4) | G2 (B4 AG F2) (B2- | Bc d4 B2 c3 B | A2 GA Bc d4 c2 | d3 c B2 c2) A4 | %58
w: ma\- * *||bant in * * * ex\-|||* * * * cel-|
 G12 ||[M:3/2][K:treble-8] (F8 G4 | B4 d4 c4 | B3 A GF B4 A2) | B4 z2 B2 (c4 | d4) c4 z2 B2 | %64
w: sis.|Cum\- *|||que au- dis\-|* sent, quod|
[M:3/2][K:treble-8] (A2 F2 c4) F4 | B4 (B4 A4) | (B4 c4) (A4 | B4) G4 (G3 A | B2 c3 BGA B2 c2 | %69
w: Je\- * * sus|ve- ni\- *|ret * Hie\-|* ro- so\- *||
 A2 B2) G4 A4 | G12 | z4 z2 G4 F2 | (G4 A4) G4 | (A4 B4) (A4 | G4) (F4 G4) | z2 D2 (EFGE F4) | %76
w: * * ly\- *|mam|ex- i-|e\- * runt|ob\- * vi\-|* am *|ob- vi\- * * * *|
 D4 z2 d2 (B4 | c4 d2 B4 AG | B3 c) d4 z2 d2 | (B2 c4 d2 c3 B | AG A4 GF EFGE) | F4 z4 (F4 | %82
w: am, ob- vi\-||* * am, ob-|vi\- * * * *||am cum|
 G4) B4 (B4 | A4) G4 (G4 | B4 c4 B4 | A4 B4 c4 | B4 c4 c4) | B8 z2 (d2- | defd _e2 c2 e4 | %89
w: * ra- mis|* pal- ma\-||||rum. O\-||
 d2 f3 _edc B3 A | GF B4 AG) A4 | B12 | z4 z4 B4 | (B4 A4 G4 | F4 G4 A4) | G2 (B4 AG F2) (B2- | %96
w: |* * * * * san-|na|cla-|ma\- * *||bant in * * * ex\-|
 Bc d4 B2 c3 B | A2 GA Bc d4 c2 | d3 c/B/ A2 G2 B4 | A2 c3 BAG A4 | G2) (B4 AG) F2 (B2- | %101
w: ||||* cel\- * * sis, in|
 Bc d4) B2 (c3 B | A2 GA Bc d4 c2 | d3 c/B/ A2 G2 B4 | A2 c3 BAG A4) | G12- | G12 |] %107
w: * * * ex- cel\- *||||sis.||
V:4
 z12 | z12 | z12 | D,8 C,4 | D,4 (D,4 F,3 E,) |[M:3/2] D,2 (B,,2 C,2) _E,2 D,4 | z4 z4 C,4 | %7
w: |||In- gre-|di- en\- * *|te Do\- * mi- no|in|
 D,4 F,4 (E,2 F,2- | F,E,D,C, B,,2 D,2) C,4 | (B,,3 C, D,2 E,2) F,4 | z4 z2 (B,,4 A,,G,, | %11
w: sanc- tam ci\- *|* * * * * * vi-|ta\- * * * tem,|ci\- * *|
 D,4) G,,2 (G,3 F, D,2 | E,4) F,4 z2 F,2 | (G,3 F, _E,2) D,2 C,2 F,2- | F,2 D,2 G,4 z2 F,2 | %15
w: * vi- ta\- * *|* ~tem, in|sanc\- * * tam ci- vi\-|* ta- tem, in|
 F,2 F,2 G,2 C,2 D,4 | G,,8 z4 | B,,8 (C,4 | D,4) (D,4 C,4) | A,,8 (B,,4 | C,4) (B,,4 C,4 | %21
w: sanc- tam ci- vi- ta-|tem|He- brae\-|* o\- *|rum pu\-|* e\- *|
 B,,6 A,,G,, A,,4) | G,,8 z4 | z2 (G,3 A,) B,2 A,4 | D,4 z4 z4 | G,2 (B,4 A,G, A,4) | %26
w: |ri,|He\- * brae- o-|rum,|He- brae\- * * *|
 (G,6 F,E,) D,4 | _E,2 (C,3 D, E,2) D,4 | z4 (D,4 E,4) | D,4 E,2 C,2 G,4 | C,6 E,2 D,4 | %31
w: o\- * * rum|pu- e\- * * ri|re\- *|sur- rec- ti- o-|nem vi- tae,|
 z2 G,4 C,2 F,2 F,2 | G,6 F,2 (_E,2 D,2 | C,4 B,,2 G,,2 B,,2 C,2) | G,,4 z2 (D,2 _E,2 B,,2- | %35
w: re- sur- rec- ti-|o- nem vi\- *||tae, vi\- * *|
 B,,C,D,=E,) F,4 z2 G,2 | E,2 F,2 (G,4 D,C,D,E, | F,G,A,F,) G,4 z4 | z2 G,,2 D,2 B,,2 (C,4 | %39
w: * * * * tae pro-|nun- ci an\- * * * *|* * * * tes,|pro- nun- ci- an\-|
 D,3 E, F,2 D,2 C,4 | B,,3 C, D,2 B,,2 F,4) | C,4 z4 z4 | z4 z2 (G,4 F,E, | %43
w: ||tes|cum * *|
 D,C, D,2) (C,D,E,F, G,2 G,,2 | D,4) G,,2 G,2 (E,2 F,2 | G,4) F,8 | z4 B,,8 | (B,,4 C,8) | B,,12 | %49
w: * * * ra\- * * * * *|* mis pal- ma\- *|* rum.|O-|san\- *|na|
 z12 | z4 (B,,6 C,2) | D,4 G,,4 z4 | G,4 (D,4 _E,4) | D,4 z4 z4 | z4 G,,4 B,,4 | %55
w: |cla\- *|ma- bant,|cla- ma\- *|bant,|cla- ma-|
 G,,4 G,4 E,2 (F,2- | F,2 G,3 F, D,2 _E,4) | D,2 G,4 C,2 D,4 | G,,12 ||[M:3/2] (F,6 E,D, C,4 | %60
w: bant in ex- cel\-||sis, in ex- cel-|sis.|Cum\- * * *|
 B,,6 A,,G,, C,4) | G,,8 z4 | G,8 F,4 | z2 B,,2 F,4 B,,4 |[M:3/2] z4 z4 B,,4 | %65
w: |que,|cum- que|au- dis- sent,|quod|
 B,,2 (B,,3 C,D,E, F,2) A,2 | G,4 F,4 z2 D,2- | D,2 (G,3 F,E,D,) C,4 | z2 (C,3 D,E,F, G,2) C,2 | %69
w: Je- sus * * * * ve-|ni- ret, ve\-|* ni\- * * * ret|Hie\- * * * * ro-|
 (D,2 B,,2) (C,2 _E,2 D,4) | G,,4 z2 G,,2 C,2 _E,2 | D,4 z2 (B,,3 C, D,2) | C,2 _E,2 D,4 z2 G,2- | %73
w: so\- * ly\- * *|mam ex- i- e-|runt, ex\- * *|i- e- runt, ex\-|
 G,2 F,2 G,4 D,4 | z4 z4 (C,4 | D,4) (C,4 B,,3 C, | D,E, F,3 E,D,C, D,2 _E,2 | C,4) B,,4 z2 _E,2- | %78
w: * i- e- runt|ob\-|* vi\- * *||* am, ob\-|
 E,2 (_E,2 D,3 =E, F,2 D,2 | G,2 F,4 B,,2) C,4 | z2 (F,4 E,D,) C,4 | (B,,3 C, D,2) B,,2 F,4 | %82
w: * vi\- * * * *|* * * am|cum * * ra-|mis * * pal- ma-|
 C,4 z4 z4 | z4 z2 (G,4 F,E, | D,C, D,2) (C,D,E,F,) G,2 G,,2 | D,4 G,,2 G,2 E,2 F,2 | G,4 F,8 | %87
w: rum,|cum * *|* * * ra\- * * * mis pal-|ma- rum, ra- mis pal-|ma- rum.|
 z4 B,,8 | (B,,4 C,8) | B,,12 | z12 | z4 (B,,6 C,2) | D,4 G,,4 z4 | G,4 (D,4 _E,4) | D,4 z4 z4 | %95
w: O-|san\- *|na||cla\- *|ma- bant,|cla- ma\- *|bant,|
 z4 G,,4 B,,4 | G,,4 G,4 E,2 (F,2- | F,2 G,4 D,2 _E,4) | D,4 z2 (G,,3 A,,B,,C, | %99
w: cla- ma-|bant in ex- cel\-||sis, in * * *|
 D,2) C,2 _E,4 D,4 | z4 G,,4 B,,4 | G,,4 G,4 E,2 (F,2- | F,2 G,4 D,2 E,4) | D,4 z2 (G,,3 A,,B,,C, | %104
w: * ex- cel- sis,|cla- ma-|bant in ex- cel\-||sis, in * * *|
 D,2) C,2 (_E,4 D,4) | G,,12- | G,,12 |] %107
w: * ex- cel\- *|sis.||

